packages/fxa-settings/src/components/ConnectedServices/monitor.svg

<svg width="23" height="24" viewBox="0 0 23 24" fill="none" xmlns="http://www.w3.org/2000/svg">
<path fill-rule="evenodd" clip-rule="evenodd" d="M11.039 8.75828C12.9298 8.75828 14.4674 10.2848 14.4674 12.1583C14.4674 14.0318 12.9298 15.5567 11.039 15.5567C9.14819 15.5567 7.61061 14.0318 7.61061 12.1583C7.61061 10.2848 9.14819 8.75828 11.039 8.75828ZM20.4884 4.92301L12.7942 0.516862L12.6271 0.422242C11.6477 -0.140747 10.4303 -0.140747 9.45097 0.422242L1.75678 4.82681L1.58962 4.92301C0.6103 5.48442 0 6.53155 0 7.65753V16.6591C0 17.785 0.6103 18.8322 1.58962 19.3936L9.28381 23.7981C9.51563 23.9306 9.77899 24 10.0423 24C10.5848 24 11.0926 23.7098 11.3655 23.2446C11.5673 22.8929 11.6241 22.4845 11.52 22.0934C11.4128 21.6976 11.1589 21.3696 10.8056 21.1693L3.28332 16.8609C3.14139 16.7805 3.05308 16.6275 3.05308 16.4667V7.84992C3.05308 7.68591 3.14139 7.53768 3.28332 7.45567L10.8072 3.14572C10.9523 3.06372 11.1305 3.06687 11.2708 3.1473L18.7947 7.45567C18.9366 7.53768 19.025 7.68749 19.025 7.84992V16.4667C19.025 16.6275 18.9366 16.7805 18.7947 16.8609L16.5301 18.1572L15.5871 16.7363C16.8187 15.5315 17.5205 13.8709 17.5205 12.1583C17.5205 8.61161 14.6141 5.72728 11.039 5.72728C7.46395 5.72728 4.55754 8.61161 4.55754 12.1583C4.55754 15.7034 7.46395 18.5877 11.039 18.5877C11.6966 18.5877 12.3463 18.4915 12.9677 18.2991L14.7749 21.0226C14.8128 21.0794 14.8554 21.1346 14.9279 21.2134C14.991 21.2812 15.0493 21.3349 15.0903 21.3617L15.1455 21.4074C15.2149 21.4594 15.2906 21.5052 15.371 21.5415L15.4089 21.5604C15.4751 21.5919 15.5429 21.6172 15.6628 21.6534C15.7432 21.6723 15.8252 21.685 15.9167 21.6944L16.0476 21.7023C16.0807 21.7023 16.1154 21.7007 16.1863 21.6944L16.251 21.6865C16.3377 21.6755 16.4229 21.6566 16.4876 21.6361C16.5238 21.6266 16.5601 21.6108 16.5711 21.6061C16.639 21.5809 16.7036 21.5525 16.7572 21.5257L20.4884 19.3936C21.4677 18.8322 22.078 17.785 22.078 16.6591V7.65753C22.078 6.53155 21.4677 5.48442 20.4884 4.92301Z" fill="#20123A"/>
</svg>

<svg width="23" height="24" fill="none" xmlns="http://www.w3.org/2000/svg"><path fill-rule="evenodd" clip-rule="evenodd" d="M11.039 8.758c1.89 0 3.428 1.527 3.428 3.4 0 1.874-1.537 3.399-3.428 3.399-1.89 0-3.428-1.525-3.428-3.399 0-1.873 1.537-3.4 3.428-3.4zm9.45-3.835L12.793.517l-.167-.095a3.198 3.198 0 00-3.176 0L1.757 4.827l-.167.096A3.162 3.162 0 000 7.658v9.001c0 1.126.61 2.173 1.59 2.735l7.694 4.404a1.534 1.534 0 002.082-.553c.201-.352.258-.76.154-1.152a1.506 1.506 0 00-.714-.924l-7.523-4.308a.456.456 0 01-.23-.394V7.85c0-.164.088-.312.23-.394l7.524-4.31a.471.471 0 01.464.001l7.524 4.309c.142.082.23.231.23.394v8.617c0 .16-.088.314-.23.394l-2.265 1.296-.943-1.42a6.43 6.43 0 001.933-4.579c0-3.546-2.906-6.43-6.481-6.43-3.575 0-6.481 2.884-6.481 6.43 0 3.545 2.906 6.43 6.481 6.43.658 0 1.307-.097 1.929-.289l1.807 2.724a1.488 1.488 0 00.315.339l.056.045c.069.052.145.098.225.134l.038.02a1.7 1.7 0 00.254.092c.08.02.162.032.254.041l.13.008c.034 0 .068-.001.14-.008l.064-.008c.087-.01.172-.03.237-.05a1.916 1.916 0 00.27-.11l3.73-2.132a3.162 3.162 0 001.59-2.735V7.658c0-1.126-.61-2.174-1.59-2.735z" fill="#20123A"/></svg>
